Flat-Remix-Dark/apps/scalable/postr.svg

<svg xmlns="http://www.w3.org/2000/svg" xmlns:xlink="http://www.w3.org/1999/xlink" width="384pt" height="384pt" version="1.1" viewBox="0 0 384 384">
 <defs>
  <filter id="alpha" width="100%" height="100%" x="0%" y="0%" filterUnits="objectBoundingBox">
   <feColorMatrix in="SourceGraphic" type="matrix" values="0 0 0 0 1 0 0 0 0 1 0 0 0 0 1 0 0 0 1 0"/>
  </filter>
  <mask id="mask0">
   <g filter="url(#alpha)">
    <rect width="384" height="384" x="0" y="0" style="fill:rgb(0%,0%,0%);fill-opacity:0.2"/>
   </g>
  </mask>
  <clipPath id="clip1">
   <rect width="384" height="384" x="0" y="0"/>
  </clipPath>
  <g id="surface5" clip-path="url(#clip1)">
   <path style="fill:rgb(0%,0%,0%)" d="M 40.800781 30 L 343.199219 30 C 352.507812 30 360 37.492188 360 46.800781 L 360 318.746094 L 339.308594 342.039062 C 333.128906 348.996094 335.570312 349.820312 327.285156 354.0625 L 303.980469 366 L 40.800781 366 C 31.492188 366 24 358.507812 24 349.199219 L 24 46.800781 C 24 37.492188 31.492188 30 40.800781 30 Z M 40.800781 30"/>
  </g>
  <mask id="mask1">
   <g filter="url(#alpha)">
    <rect width="384" height="384" x="0" y="0" style="fill:rgb(0%,0%,0%);fill-opacity:0.2"/>
   </g>
  </mask>
  <clipPath id="clip2">
   <rect width="384" height="384" x="0" y="0"/>
  </clipPath>
  <g id="surface8" clip-path="url(#clip2)">
   <path style="fill:rgb(100%,100%,100%)" d="M 40.804688 24 C 31.496094 24 24 31.496094 24 40.804688 L 24 46.804688 C 24 37.496094 31.496094 30 40.804688 30 L 343.195312 30 C 352.503906 30 360 37.496094 360 46.804688 L 360 40.804688 C 360 31.496094 352.503906 24 343.195312 24 Z M 40.804688 24"/>
  </g>
  <mask id="mask2">
   <g filter="url(#alpha)">
    <rect width="384" height="384" x="0" y="0" style="fill:rgb(0%,0%,0%);fill-opacity:0.2"/>
   </g>
  </mask>
  <clipPath id="clip3">
   <rect width="384" height="384" x="0" y="0"/>
  </clipPath>
  <g id="surface11" clip-path="url(#clip3)">
   <path style="fill:rgb(0%,0%,0%)" d="M 384 294 C 384 340.390625 346.390625 378 300 378 C 253.609375 378 216 340.390625 216 294 C 216 247.609375 253.609375 210 300 210 C 346.390625 210 384 247.609375 384 294 Z M 384 294"/>
  </g>
 </defs>
 <g>
  <use mask="url(#mask0)" xlink:href="#surface5"/>
  <path style="fill:rgb(71.764706%,76.470588%,80.392157%)" d="M 40.800781 24 L 343.199219 24 C 352.507812 24 360 31.492188 360 40.800781 L 360 317.15625 L 344.085938 340.8125 C 338.890625 348.535156 335.859375 349.214844 327.285156 352.839844 L 310.34375 360 L 40.800781 360 C 31.492188 360 24 352.507812 24 343.199219 L 24 40.800781 C 24 31.492188 31.492188 24 40.800781 24 Z M 40.800781 24"/>
  <path style="fill:rgb(21.176471%,48.235294%,94.117647%)" d="M 180 189 C 180 223.792969 151.792969 252 117 252 C 82.207031 252 54 223.792969 54 189 C 54 154.207031 82.207031 126 117 126 C 151.792969 126 180 154.207031 180 189 Z M 180 189"/>
  <path style="fill:rgb(55.686275%,26.666667%,67.843137%)" d="M 330 189 C 330 223.792969 301.792969 252 267 252 C 232.207031 252 204 223.792969 204 189 C 204 154.207031 232.207031 126 267 126 C 301.792969 126 330 154.207031 330 189 Z M 330 189"/>
  <use mask="url(#mask1)" xlink:href="#surface8"/>
  <use mask="url(#mask2)" xlink:href="#surface11"/>
  <path style="fill:rgb(55.686275%,26.666667%,67.843137%)" d="M 384 288 C 384 334.390625 346.390625 372 300 372 C 253.609375 372 216 334.390625 216 288 C 216 241.609375 253.609375 204 300 204 C 346.390625 204 384 241.609375 384 288 Z M 384 288"/>
  <path style="fill:rgb(100%,100%,100%)" d="M 299.796875 240 L 264.003906 288 L 288.003906 288 L 288.003906 336 L 312.003906 336 L 312.003906 288 L 336.003906 288 Z M 299.796875 240"/>
 </g>
</svg>

<svg xmlns="http://www.w3.org/2000/svg" xmlns:xlink="http://www.w3.org/1999/xlink" width="384pt" height="384pt" version="1.1" viewBox="0 0 384 384">
 <defs>
  <filter id="alpha" width="100%" height="100%" x="0%" y="0%" filterUnits="objectBoundingBox">
   <feColorMatrix in="SourceGraphic" type="matrix" values="0 0 0 0 1 0 0 0 0 1 0 0 0 0 1 0 0 0 1 0"/>
  </filter>
  <mask id="mask0">
   <g filter="url(#alpha)">
    <rect width="384" height="384" x="0" y="0" style="fill:rgb(0%,0%,0%);fill-opacity:0.2"/>
   </g>
  </mask>
  <clipPath id="clip1">
   <rect width="384" height="384" x="0" y="0"/>
  </clipPath>
  <g id="surface5" clip-path="url(#clip1)">
   <path style="fill:rgb(0%,0%,0%)" d="M 40.800781 30 L 343.199219 30 C 352.507812 30 360 37.492188 360 46.800781 L 360 318.746094 L 339.308594 342.039062 C 333.128906 348.996094 335.570312 349.820312 327.285156 354.0625 L 303.980469 366 L 40.800781 366 C 31.492188 366 24 358.507812 24 349.199219 L 24 46.800781 C 24 37.492188 31.492188 30 40.800781 30 Z M 40.800781 30"/>
  </g>
  <mask id="mask1">
   <g filter="url(#alpha)">
    <rect width="384" height="384" x="0" y="0" style="fill:rgb(0%,0%,0%);fill-opacity:0.2"/>
   </g>
  </mask>
  <clipPath id="clip2">
   <rect width="384" height="384" x="0" y="0"/>
  </clipPath>
  <g id="surface8" clip-path="url(#clip2)">
   <path style="fill:rgb(100.000%,100.000%,100.000%)" d="M 40.804688 24 C 31.496094 24 24 31.496094 24 40.804688 L 24 46.804688 C 24 37.496094 31.496094 30 40.804688 30 L 343.195312 30 C 352.503906 30 360 37.496094 360 46.804688 L 360 40.804688 C 360 31.496094 352.503906 24 343.195312 24 Z M 40.804688 24"/>
  </g>
  <mask id="mask2">
   <g filter="url(#alpha)">
    <rect width="384" height="384" x="0" y="0" style="fill:rgb(0%,0%,0%);fill-opacity:0.2"/>
   </g>
  </mask>
  <clipPath id="clip3">
   <rect width="384" height="384" x="0" y="0"/>
  </clipPath>
  <g id="surface11" clip-path="url(#clip3)">
   <path style="fill:rgb(0%,0%,0%)" d="M 384 294 C 384 340.390625 346.390625 378 300 378 C 253.609375 378 216 340.390625 216 294 C 216 247.609375 253.609375 210 300 210 C 346.390625 210 384 247.609375 384 294 Z M 384 294"/>
  </g>
 </defs>
 <use width="100%" height="100%" x="0" y="0" mask="url(#mask0)" xlink:href="#surface5"/>
 <path d="M 40.800781,24 H 343.19922 C 352.50781,24 360,31.492188 360,40.800781 V 317.15625 l -15.91406,23.65625 c -5.19532,7.72266 -8.22657,8.40234 -16.80078,12.02734 L 310.34375,360 H 40.800781 C 31.492188,360 24,352.50781 24,343.19922 V 40.800781 C 24,31.492188 31.492188,24 40.800781,24 Z m 0,0" style="fill:#ffffff"/>
 <path style="opacity:0.3" d="M 156 178 C 109.60937 178 72 215.60937 72 262 C 72 308.39061 109.60937 346 156 346 C 202.39061 346 240 308.39061 240 262 C 240 215.60937 202.39061 178 156 178 z M 356 178 C 309.60939 178 272 215.60937 272 262 C 272 308.39061 309.60939 346 356 346 C 402.39063 346 440 308.39061 440 262 C 440 215.60937 402.39063 178 356 178 z" transform="scale(0.75)"/>
 <g>
  <path style="fill:#357af0" d="m 180,189 c 0,34.79297 -28.20703,63 -63,63 -34.792969,0 -63,-28.20703 -63,-63 0,-34.79297 28.207031,-63 63,-63 34.79297,0 63,28.20703 63,63 z m 0,0"/>
  <path style="fill:#de4a7d" d="m 330,189 c 0,34.79297 -28.20703,63 -63,63 -34.79297,0 -63,-28.20703 -63,-63 0,-34.79297 28.20703,-63 63,-63 34.79297,0 63,28.20703 63,63 z m 0,0"/>
 </g>
 <use width="100%" height="100%" x="0" y="0" mask="url(#mask1)" xlink:href="#surface8"/>
 <use width="100%" height="100%" x="0" y="0" mask="url(#mask2)" xlink:href="#surface11"/>
 <path d="m 384,288 c 0,46.39062 -37.60938,84 -84,84 -46.39063,0 -84,-37.60938 -84,-84 0,-46.39063 37.60937,-84 84,-84 46.39062,0 84,37.60937 84,84 z m 0,0" style="fill:#8a3fab"/>
 <path d="m 299.79687,240 -35.79296,48 h 24 v 48 h 24 v -48 h 24 z m 0,0" style="fill:#ffffff"/>
</svg>
